**harm	**harte	**timestamp	**phrase	**leadinstrument	**kern
*M4/4	*M4/4	*	*	*	*
*C:	*C:	*	*	*	*C:
1r;	N	0	.	r	1r;
=1	=1	=1	=1	=1	=1
*>A_intro	*>A_intro	*>A_intro	*>A_intro	*>A_intro	*>A_intro
2I	C:maj	0.627	newline	.	2C 2e 2g
2IV	F:maj	1.224	.	.	2F 2a 2cc
=2	=2	=2	=2	=2	=2
1V	G:maj	1.82	.	.	1G 1b 1dd
=3	=3	=3	=3	=3	=3
2I	C:maj	3.014	.	.	2C 2e 2g
2IV	F:maj	3.611	.	.	2F 2a 2cc
=4	=4	=4	=4	=4	=4
1I	C:maj	4.207	.	.	1C 1e 1g
=5	=5	=5	=5	=5	=5
2I	C:maj	5.401	.	.	2C 2e 2g
2IV	F:maj	5.998	.	.	2F 2a 2cc
=6	=6	=6	=6	=6	=6
1V	G:maj	6.594	.	.	1G 1b 1dd
=7	=7	=7	=7	=7	=7
2I	C:maj	7.788	.	.	2C 2e 2g
2IV	F:maj	8.385	.	.	2F 2a 2cc
=8	=8	=8	=8	=8	=8
1I	C:maj	8.981	.	.	1C 1e 1g
=9	=9	=9	=9	=9	=9
*>B_verse	*>B_verse	*>B_verse	*>B_verse	*>B_verse	*>B_verse
1I	C:maj	10.175	newline	voice	1C 1e 1g
=10	=10	=10	=10	=10	=10
1I	C:maj	11.346	.	voice	1C 1e 1g
=11	=11	=11	=11	=11	=11
1IV	F:maj	12.517	.	voice	1F 1a 1cc
=12	=12	=12	=12	=12	=12
1IV	F:maj	13.687	.	voice	1F 1a 1cc
=13	=13	=13	=13	=13	=13
1ii7	D:min7	14.858	.	voice	1D 1f 1a 1cc
=14	=14	=14	=14	=14	=14
1V	G:sus4(b7)	16.029	.	voice	1G 1b 1dd
=15	=15	=15	=15	=15	=15
1I	C:maj	17.2	.	voice	1C 1e 1g
=16	=16	=16	=16	=16	=16
1I	C:maj	18.371	.	voice	1C 1e 1g
=17	=17	=17	=17	=17	=17
1I	C:maj	19.542	newline	voice	1C 1e 1g
=18	=18	=18	=18	=18	=18
1I	C:maj	20.71	.	voice	1C 1e 1g
=19	=19	=19	=19	=19	=19
1IV	F:maj	21.879	.	voice	1F 1a 1cc
=20	=20	=20	=20	=20	=20
1IV	F:maj	23.047	.	voice	1F 1a 1cc
=21	=21	=21	=21	=21	=21
1ii7	D:min7	24.216	.	voice	1D 1f 1a 1cc
=22	=22	=22	=22	=22	=22
1V	G:sus4(b7)	25.384	.	voice	1G 1b 1dd
=23	=23	=23	=23	=23	=23
1I	C:maj	26.552	.	voice	1C 1e 1g
=24	=24	=24	=24	=24	=24
1I	C:maj	27.721	.	voice	1C 1e 1g
=25	=25	=25	=25	=25	=25
*>C_chorus	*>C_chorus	*>C_chorus	*>C_chorus	*>C_chorus	*>C_chorus
2I	C:maj	28.889	newline	voice	2C 2e 2g
2V7b	G:7/3	29.483	.	voice	2g 2B 2dd 2ff
=26	=26	=26	=26	=26	=26
4vi7	A:min7	30.077	.	voice	4A 4cc 4ee 4gg
4V7	G:7	30.374	.	voice	4G 4b 4dd 4ff
4IV	F:maj	30.671	.	voice	4F 4a 4cc
4Ib	C:maj/3	30.968	.	voice	4c 4E 4g
=27	=27	=27	=27	=27	=27
2ii	D:min	31.265	.	voice	2D 2f 2a
2iii7	E:min7	31.859	.	voice	2E 2g 2b 2dd
=28	=28	=28	=28	=28	=28
2IV7	F:maj7	32.453	.	voice	2F 2a 2cc 2ee
2IV7	N	33.047	.	voice	2F 2a 2cc 2ee
=29	=29	=29	=29	=29	=29
1IV	F:maj	33.64	.	voice	1F 1a 1cc
=30	=30	=30	=30	=30	=30
1V7	G:7	34.828	.	voice	1G 1b 1dd 1ff
=31	=31	=31	=31	=31	=31
1I	C:maj	36.016	.	voice	1C 1e 1g
=32	=32	=32	=32	=32	=32
1I	C:maj	37.204	.	voice	1C 1e 1g
=33	=33	=33	=33	=33	=33
2I	C:maj	38.392	newline	voice	2C 2e 2g
2V7b	G:7/3	38.981	.	voice	2g 2B 2dd 2ff
=34	=34	=34	=34	=34	=34
4vi7	A:min7	39.57	.	voice	4A 4cc 4ee 4gg
4V7	G:7	39.864	.	voice	4G 4b 4dd 4ff
4IV	F:maj	40.159	.	voice	4F 4a 4cc
4Ib	C:maj/3	40.453	.	voice	4c 4E 4g
=35	=35	=35	=35	=35	=35
2ii	D:min	40.748	.	voice	2D 2f 2a
2iii7	E:min7	41.337	.	voice	2E 2g 2b 2dd
=36	=36	=36	=36	=36	=36
2IV7	F:maj7	41.926	.	voice	2F 2a 2cc 2ee
2IV7	N	42.515	.	voice	2F 2a 2cc 2ee
=37	=37	=37	=37	=37	=37
1IV	F:maj	43.104	.	voice	1F 1a 1cc
=38	=38	=38	=38	=38	=38
1V7	G:7	44.282	.	voice	1G 1b 1dd 1ff
=39	=39	=39	=39	=39	=39
1I	C:maj	45.46	.	voice	1C 1e 1g
=40	=40	=40	=40	=40	=40
1I	C:maj	46.638	.	voice	1C 1e 1g
=41	=41	=41	=41	=41	=41
*>A_trans	*>A_trans	*>A_trans	*>A_trans	*>A_trans	*>A_trans
2I	C:maj	47.816	newline	.	2C 2e 2g
2IV	F:maj	48.421	.	.	2F 2a 2cc
=42	=42	=42	=42	=42	=42
1V	G:maj	49.026	.	.	1G 1b 1dd
=43	=43	=43	=43	=43	=43
2I	C:maj	50.236	.	.	2C 2e 2g
2IV	F:maj	50.841	.	.	2F 2a 2cc
=44	=44	=44	=44	=44	=44
1I	C:maj	51.446	.	.	1C 1e 1g
=45	=45	=45	=45	=45	=45
2I	C:maj	52.657	.	.	2C 2e 2g
2IV	F:maj	53.262	.	.	2F 2a 2cc
=46	=46	=46	=46	=46	=46
1V	G:maj	53.867	.	.	1G 1b 1dd
=47	=47	=47	=47	=47	=47
2I	C:maj	55.077	.	.	2C 2e 2g
2IV	F:maj	55.682	.	.	2F 2a 2cc
=48	=48	=48	=48	=48	=48
1I	C:maj	56.287	.	.	1C 1e 1g
=49	=49	=49	=49	=49	=49
*>B_verse	*>B_verse	*>B_verse	*>B_verse	*>B_verse	*>B_verse
1I	C:maj	57.497	newline	voice	1C 1e 1g
=50	=50	=50	=50	=50	=50
1I	C:maj	58.686	.	voice	1C 1e 1g
=51	=51	=51	=51	=51	=51
1IV	F:maj	59.876	.	voice	1F 1a 1cc
=52	=52	=52	=52	=52	=52
1IV	F:maj	61.066	.	voice	1F 1a 1cc
=53	=53	=53	=53	=53	=53
1ii7	D:min7	62.255	.	voice	1D 1f 1a 1cc
=54	=54	=54	=54	=54	=54
1V	G:sus4(b7)	63.445	.	voice	1G 1b 1dd
=55	=55	=55	=55	=55	=55
1I	C:maj	64.634	.	voice	1C 1e 1g
=56	=56	=56	=56	=56	=56
1I	C:maj	65.824	.	voice	1C 1e 1g
=57	=57	=57	=57	=57	=57
1I	C:maj	67.013	newline	voice	1C 1e 1g
=58	=58	=58	=58	=58	=58
1I	C:maj	68.198	.	voice	1C 1e 1g
=59	=59	=59	=59	=59	=59
1IV	F:maj	69.382	.	voice	1F 1a 1cc
=60	=60	=60	=60	=60	=60
1IV	F:maj	70.566	.	voice	1F 1a 1cc
=61	=61	=61	=61	=61	=61
1ii7	D:min7	71.75	.	voice	1D 1f 1a 1cc
=62	=62	=62	=62	=62	=62
1V	G:sus4(b7)	72.935	.	voice	1G 1b 1dd
=63	=63	=63	=63	=63	=63
1I	C:maj	74.119	.	voice	1C 1e 1g
=64	=64	=64	=64	=64	=64
1I	C:maj	75.303	.	voice	1C 1e 1g
=65	=65	=65	=65	=65	=65
*>C_chorus	*>C_chorus	*>C_chorus	*>C_chorus	*>C_chorus	*>C_chorus
2I	C:maj	76.488	newline	voice	2C 2e 2g
2V7b	G:7/3	77.083	.	voice	2g 2B 2dd 2ff
=66	=66	=66	=66	=66	=66
4vi7	A:min7	77.678	.	voice	4A 4cc 4ee 4gg
4V7	G:7	77.976	.	voice	4G 4b 4dd 4ff
4IV	F:maj	78.273	.	voice	4F 4a 4cc
4Ib	C:maj/3	78.571	.	voice	4c 4E 4g
=67	=67	=67	=67	=67	=67
2ii	D:min	78.868	.	voice	2D 2f 2a
2iii7	E:min7	79.463	.	voice	2E 2g 2b 2dd
=68	=68	=68	=68	=68	=68
2IV7	F:maj7	80.059	.	voice	2F 2a 2cc 2ee
2IV7	N	80.654	.	voice	2F 2a 2cc 2ee
=69	=69	=69	=69	=69	=69
1IV	F:maj	81.249	.	voice	1F 1a 1cc
=70	=70	=70	=70	=70	=70
1V7	G:7	82.439	.	voice	1G 1b 1dd 1ff
=71	=71	=71	=71	=71	=71
1I	C:maj	83.63	.	voice	1C 1e 1g
=72	=72	=72	=72	=72	=72
1I	C:maj	84.82	.	voice	1C 1e 1g
=73	=73	=73	=73	=73	=73
2I	C:maj	86.01	newline	voice	2C 2e 2g
2V7b	G:7/3	86.611	.	voice	2g 2B 2dd 2ff
=74	=74	=74	=74	=74	=74
4vi7	A:min7	87.212	.	voice	4A 4cc 4ee 4gg
4V7	G:7	87.512	.	voice	4G 4b 4dd 4ff
4IV	F:maj	87.813	.	voice	4F 4a 4cc
4Ib	C:maj/3	88.113	.	voice	4c 4E 4g
=75	=75	=75	=75	=75	=75
2ii	D:min	88.414	.	voice	2D 2f 2a
2iii7	E:min7	89.014	.	voice	2E 2g 2b 2dd
=76	=76	=76	=76	=76	=76
2IV7	F:maj7	89.615	.	voice	2F 2a 2cc 2ee
2IV7	N	90.216	.	voice	2F 2a 2cc 2ee
=77	=77	=77	=77	=77	=77
1IV	F:maj	90.817	.	voice	1F 1a 1cc
=78	=78	=78	=78	=78	=78
1V7	G:7	92.019	.	voice	1G 1b 1dd 1ff
=79	=79	=79	=79	=79	=79
1I	C:maj	93.22	.	voice	1C 1e 1g
=80	=80	=80	=80	=80	=80
1I	C:maj	94.422	.	voice	1C 1e 1g
=81	=81	=81	=81	=81	=81
*>A_trans	*>A_trans	*>A_trans	*>A_trans	*>A_trans	*>A_trans
2I	C:maj	95.624	newline	.	2C 2e 2g
2IV	F:maj	96.227	.	.	2F 2a 2cc
=82	=82	=82	=82	=82	=82
1V	G:maj	96.831	.	.	1G 1b 1dd
=83	=83	=83	=83	=83	=83
2I	C:maj	98.038	.	.	2C 2e 2g
2IV	F:maj	98.642	.	.	2F 2a 2cc
=84	=84	=84	=84	=84	=84
1I	C:maj	99.245	.	.	1C 1e 1g
=85	=85	=85	=85	=85	=85
2I	C:maj	100.452	.	.	2C 2e 2g
2IV	F:maj	101.056	.	.	2F 2a 2cc
=86	=86	=86	=86	=86	=86
1V	G:maj	101.659	.	.	1G 1b 1dd
=87	=87	=87	=87	=87	=87
2I	C:maj	102.866	.	.	2C 2e 2g
2IV	F:maj	103.47	.	.	2F 2a 2cc
=88	=88	=88	=88	=88	=88
1I	C:maj	104.074	.	.	1C 1e 1g
=89	=89	=89	=89	=89	=89
*>B_verse	*>B_verse	*>B_verse	*>B_verse	*>B_verse	*>B_verse
1I	C:maj	105.281	newline	voice	1C 1e 1g
=90	=90	=90	=90	=90	=90
1I	C:maj	106.477	.	voice	1C 1e 1g
=91	=91	=91	=91	=91	=91
1IV	F:maj	107.673	.	voice	1F 1a 1cc
=92	=92	=92	=92	=92	=92
1IV	F:maj	108.869	.	voice	1F 1a 1cc
=93	=93	=93	=93	=93	=93
1ii7	D:min7	110.065	.	voice	1D 1f 1a 1cc
=94	=94	=94	=94	=94	=94
1V	G:sus4(b7)	111.261	.	voice	1G 1b 1dd
=95	=95	=95	=95	=95	=95
1I	C:maj	112.457	.	voice	1C 1e 1g
=96	=96	=96	=96	=96	=96
1I	C:maj	113.653	.	voice	1C 1e 1g
=97	=97	=97	=97	=97	=97
1I	C:maj	114.849	newline	voice	1C 1e 1g
=98	=98	=98	=98	=98	=98
1I	C:maj	116.036	.	voice	1C 1e 1g
=99	=99	=99	=99	=99	=99
1IV	F:maj	117.224	.	voice	1F 1a 1cc
=100	=100	=100	=100	=100	=100
1IV	F:maj	118.411	.	voice	1F 1a 1cc
=101	=101	=101	=101	=101	=101
1ii7	D:min7	119.599	.	voice	1D 1f 1a 1cc
=102	=102	=102	=102	=102	=102
1V	G:sus4(b7)	120.786	.	voice	1G 1b 1dd
=103	=103	=103	=103	=103	=103
1I	C:maj	121.974	.	voice	1C 1e 1g
=104	=104	=104	=104	=104	=104
1I	C:maj	123.161	.	voice	1C 1e 1g
=105	=105	=105	=105	=105	=105
*>C_chorus	*>C_chorus	*>C_chorus	*>C_chorus	*>C_chorus	*>C_chorus
2I	C:maj	124.348	newline	voice	2C 2e 2g
2V7b	G:7/3	124.946	.	voice	2g 2B 2dd 2ff
=106	=106	=106	=106	=106	=106
4vi7	A:min7	125.543	.	voice	4A 4cc 4ee 4gg
4V7	G:7	125.842	.	voice	4G 4b 4dd 4ff
4IV	F:maj	126.14	.	voice	4F 4a 4cc
4Ib	C:maj/3	126.439	.	voice	4c 4E 4g
=107	=107	=107	=107	=107	=107
2ii	D:min	126.737	.	voice	2D 2f 2a
2iii7	E:min7	127.335	.	voice	2E 2g 2b 2dd
=108	=108	=108	=108	=108	=108
2IV7	F:maj7	127.932	.	voice	2F 2a 2cc 2ee
2IV7	N	128.529	.	voice	2F 2a 2cc 2ee
=109	=109	=109	=109	=109	=109
1IV	F:maj	129.127	.	voice	1F 1a 1cc
=110	=110	=110	=110	=110	=110
1V7	G:7	130.321	.	voice	1G 1b 1dd 1ff
=111	=111	=111	=111	=111	=111
1I	C:maj	131.516	.	voice	1C 1e 1g
=112	=112	=112	=112	=112	=112
1I	C:maj	132.71	.	voice	1C 1e 1g
=113	=113	=113	=113	=113	=113
2I	C:maj	133.905	newline	voice	2C 2e 2g
2V7b	G:7/3	134.506	.	voice	2g 2B 2dd 2ff
=114	=114	=114	=114	=114	=114
4vi7	A:min7	135.107	.	voice	4A 4cc 4ee 4gg
4V7	G:7	135.408	.	voice	4G 4b 4dd 4ff
4IV	F:maj	135.708	.	voice	4F 4a 4cc
4Ib	C:maj/3	136.009	.	voice	4c 4E 4g
=115	=115	=115	=115	=115	=115
2ii	D:min	136.31	.	voice	2D 2f 2a
2iii7	E:min7	136.911	.	voice	2E 2g 2b 2dd
=116	=116	=116	=116	=116	=116
2IV7	F:maj7	137.512	.	voice	2F 2a 2cc 2ee
2IV7	N	138.114	.	voice	2F 2a 2cc 2ee
=117	=117	=117	=117	=117	=117
1IV	F:maj	138.715	.	voice	1F 1a 1cc
=118	=118	=118	=118	=118	=118
1V7	G:7	139.918	.	voice	1G 1b 1dd 1ff
=119	=119	=119	=119	=119	=119
1I	C:maj	141.12	.	voice	1C 1e 1g
=120	=120	=120	=120	=120	=120
1I	C:maj	142.323	.	voice	1C 1e 1g
=121	=121	=121	=121	=121	=121
*>C_chorus	*>C_chorus	*>C_chorus	*>C_chorus	*>C_chorus	*>C_chorus
2I	C:maj	143.525	newline	voice	2C 2e 2g
2V7b	G:7/3	144.118	.	voice	2g 2B 2dd 2ff
=122	=122	=122	=122	=122	=122
4vi7	A:min7	144.711	.	voice	4A 4cc 4ee 4gg
4V7	G:7	145.008	.	voice	4G 4b 4dd 4ff
4IV	F:maj	145.304	.	voice	4F 4a 4cc
4Ib	C:maj/3	145.601	.	voice	4c 4E 4g
=123	=123	=123	=123	=123	=123
2ii	D:min	145.897	.	voice	2D 2f 2a
2iii7	E:min7	146.49	.	voice	2E 2g 2b 2dd
=124	=124	=124	=124	=124	=124
2IV7	F:maj7	147.084	.	voice	2F 2a 2cc 2ee
2IV7	N	147.677	.	voice	2F 2a 2cc 2ee
=125	=125	=125	=125	=125	=125
1IV	F:maj	148.27	.	voice	1F 1a 1cc
=126	=126	=126	=126	=126	=126
1V7	G:7	149.456	.	voice	1G 1b 1dd 1ff
=127	=127	=127	=127	=127	=127
1I	C:maj	150.642	.	voice	1C 1e 1g
=128	=128	=128	=128	=128	=128
1I	C:maj	151.828	.	voice	1C 1e 1g
=129	=129	=129	=129	=129	=129
*>_fadeout	*>_fadeout	*>_fadeout	*>_fadeout	*>_fadeout	*>_fadeout
2I	C:maj	153.014	newline	voice	2C 2e 2g
2V7b	G:7/3	153.615	.	voice	2g 2B 2dd 2ff
=130	=130	=130	=130	=130	=130
4vi7	A:min7	154.216	.	voice	4A 4cc 4ee 4gg
4V7	G:7	154.517	.	voice	4G 4b 4dd 4ff
4IV	F:maj	154.817	.	voice	4F 4a 4cc
4Ib	C:maj/3	155.118	.	voice	4c 4E 4g
=131	=131	=131	=131	=131	=131
2ii	D:min	155.418	.	voice	2D 2f 2a
2iii7	E:min7	156.02	.	voice	2E 2g 2b 2dd
=132	=132	=132	=132	=132	=132
2IV7	F:maj7	156.621	.	voice	2F 2a 2cc 2ee
2IV7	N	157.222	.	voice	2F 2a 2cc 2ee
=133	=133	=133	=133	=133	=133
1IV	F:maj	157.823	.	voice	1F 1a 1cc
=134	=134	=134	=134	=134	=134
1V7	G:7	159.025	.	voice	1G 1b 1dd 1ff
=135	=135	=135	=135	=135	=135
1I	C:maj	160.228	.	voice	1C 1e 1g
=136	=136	=136	=136	=136	=136
1I	C:maj	161.43	.	voice	1C 1e 1g
1r;	N	162.633	.	r	1r;
1r;	N	166.113	.	r	1r;
*-	*-	*-	*-	*-	*-
!!!OTL: One Bad Apple
!!!COC: The Osmonds
!!!BillboardChartDate: 1971/01/09
!!!BillboardPeak: 1
!!!BillboardWeeksOnChart: 15
!!!SampleTargetRank: 65
!!!SampleActualRank: 64
!!!SampleID#: 0432
!!!RDF**harmony: **recip + pitch class of root + harmonic quality
!!!RDF**harte: Chris Harte's syntax, used by MIREX
!!!RDF**phrase: newline = linebreak in original McGill transcription
!!!RDF**timestamp: McGill audio timestamp in seconds
!!!RDF**leadinstrument: original McGill primary instrumentation annotation
!!!RDT: 2017/01/12/
!!!ENC: Nathaniel Condit-Schultz
!!!EST: Awating manual error checking and editing.
